X: 314
T:Tenpenny Bit
% Nottingham Music Database
S:EF
Y:AB
M:6/8
K:Am
P:A
c/2d/2|"Am"eAA eAA|"G"BAB GBd|"Am"eAA eAA|"G"de^f gfg|
"Am"eAA eAA|"G"BAB GBd|"C""Am"de^f "G/b""G"gBB|"Am""F"BAA A2:|
P:B
B|"Am"A2a aga|"G"bge dBG|"Am""F"A2a aga|"G"bge g3|
"Am"A2a aga|"G"bge dBd|"C""F"edB "G/b""F"gBB|"Am""G"BAA A2:|


